icons/magento/magento-line.svg

<?xml version="1.0" encoding="UTF-8" standalone="no"?>
<svg
   xmlns:dc="http://purl.org/dc/elements/1.1/"
   xmlns:cc="http://creativecommons.org/ns#"
   xmlns:rdf="http://www.w3.org/1999/02/22-rdf-syntax-ns#"
   xmlns:svg="http://www.w3.org/2000/svg"
   xmlns="http://www.w3.org/2000/svg"
   xmlns:sodipodi="http://sodipodi.sourceforge.net/DTD/sodipodi-0.dtd"
   xmlns:inkscape="http://www.inkscape.org/namespaces/inkscape"
   version="1.1"
   id="Layer_1"
   viewBox="0 0 128 128"
   style="enable-background:new 0 0 128 128;"
   xml:space="preserve"
   sodipodi:docname="magento-line.svg"
   inkscape:version="1.0.2-2 (e86c870879, 2021-01-15)"><metadata
   id="metadata29"><rdf:RDF><cc:Work
       rdf:about=""><dc:format>image/svg+xml</dc:format><dc:type
         rdf:resource="http://purl.org/dc/dcmitype/StillImage" /></cc:Work></rdf:RDF></metadata><defs
   id="defs27" /><sodipodi:namedview
   pagecolor="#ffffff"
   bordercolor="#666666"
   borderopacity="1"
   objecttolerance="10"
   gridtolerance="10"
   guidetolerance="10"
   inkscape:pageopacity="0"
   inkscape:pageshadow="2"
   inkscape:window-width="1440"
   inkscape:window-height="748"
   id="namedview25"
   showgrid="false"
   inkscape:zoom="3.2040776"
   inkscape:cx="88.178527"
   inkscape:cy="70.430827"
   inkscape:window-x="-6"
   inkscape:window-y="-6"
   inkscape:window-maximized="1"
   inkscape:current-layer="Layer_1" />










<path
   style="color:#000000;font-style:normal;font-variant:normal;font-weight:normal;font-stretch:normal;font-size:medium;line-height:normal;font-family:sans-serif;font-variant-ligatures:normal;font-variant-position:normal;font-variant-caps:normal;font-variant-numeric:normal;font-variant-alternates:normal;font-variant-east-asian:normal;font-feature-settings:normal;font-variation-settings:normal;text-indent:0;text-align:start;text-decoration:none;text-decoration-line:none;text-decoration-style:solid;text-decoration-color:#000000;letter-spacing:normal;word-spacing:normal;text-transform:none;writing-mode:lr-tb;direction:ltr;text-orientation:mixed;dominant-baseline:auto;baseline-shift:baseline;text-anchor:start;white-space:normal;shape-padding:0;shape-margin:0;inline-size:0;clip-rule:nonzero;display:inline;overflow:visible;visibility:visible;isolation:auto;mix-blend-mode:normal;color-interpolation:sRGB;color-interpolation-filters:linearRGB;solid-color:#000000;solid-opacity:1;vector-effect:none;fill:#f26322;fill-opacity:1;fill-rule:nonzero;stroke:none;stroke-linecap:butt;stroke-linejoin:miter;stroke-miterlimit:10;stroke-dasharray:none;stroke-dashoffset:0;stroke-opacity:1;color-rendering:auto;image-rendering:auto;shape-rendering:auto;text-rendering:auto;enable-background:accumulate;stop-color:#000000;stop-opacity:1;opacity:1"
   d="M 64.050781 0.45703125 L 8.9804688 32.246094 L 8.9804688 95.753906 L 25.550781 105.33203 L 25.451172 41.824219 L 63.949219 19.591797 L 102.42969 41.833984 L 102.42969 105.31055 L 119.01953 95.753906 L 119.01953 32.195312 L 118.76953 32.052734 L 64.050781 0.45703125 z M 64.050781 1.6113281 L 118.01953 32.773438 L 118.01953 95.175781 L 103.42969 103.58008 L 103.42969 41.255859 L 63.949219 18.4375 L 24.449219 41.246094 L 24.548828 103.59766 L 9.9804688 95.175781 L 9.9804688 32.824219 L 64.050781 1.6113281 z M 71.269531 40.648438 L 71.269531 104.1582 L 63.998047 108.38672 L 56.679688 104.19531 L 56.679688 40.667969 L 40.109375 50.246094 L 40.130859 113.75391 L 63.970703 127.54297 L 87.859375 113.75391 L 87.859375 50.226562 L 71.269531 40.648438 z M 72.269531 42.380859 L 86.859375 50.802734 L 86.859375 113.17578 L 63.970703 126.38672 L 41.130859 113.17578 L 41.109375 50.824219 L 55.679688 42.402344 L 55.679688 104.77539 L 64.001953 109.54297 L 72.269531 104.73242 L 72.269531 104.44531 L 72.269531 42.380859 z "
   id="path22" />
</svg>

<svg xmlns="http://www.w3.org/2000/svg" viewBox="0 0 128 128"><path style="line-height:normal;font-variant-ligatures:normal;font-variant-position:normal;font-variant-caps:normal;font-variant-numeric:normal;font-variant-alternates:normal;font-variant-east-asian:normal;font-feature-settings:normal;font-variation-settings:normal;text-indent:0;text-align:start;text-decoration-line:none;text-decoration-style:solid;text-decoration-color:#000;text-transform:none;text-orientation:mixed;white-space:normal;shape-padding:0;shape-margin:0;inline-size:0;isolation:auto;mix-blend-mode:normal;solid-color:#000;solid-opacity:1" d="M64.05.457L8.98 32.247v63.507l16.57 9.578-.099-63.508L63.95 19.592l38.48 22.242v63.477l16.59-9.557V32.195l-.25-.142L64.052.457zm0 1.154l53.97 31.162v62.403l-14.59 8.404V41.256L63.95 18.437l-39.5 22.81.099 62.35L9.98 95.177V32.824L64.05 1.611zm7.22 39.037v63.51l-7.272 4.229-7.318-4.192V40.668l-16.57 9.578.02 63.508 23.84 13.789 23.89-13.79V50.228l-16.59-9.579zm1 1.733l14.59 8.422v62.373l-22.89 13.21-22.84-13.21-.02-62.352 14.57-8.422v62.373l8.322 4.768 8.268-4.81V42.38z" color="#000" font-weight="400" font-family="sans-serif" overflow="visible" fill="#f26322"/></svg>
